!!!SOCIAL_FUNCTION:	war songs
!!!PDT:	1929
!!!OTL: No_140_A_Place_of_Many_Springs.krn
!!!REG: Southwest
!!!LANG: Non-Tone
!!!LING_GROUP: Uto-Aztecan
**kern
*staff1
=1-
*clefF4
*k[b-e-a-]
*M2/4
4c\
8.c\L
16B-\Jk
=2
4G\
8.F\L
16E-\Jk
=3||
*M3/4
8.c\L
16B-\Jk
2c\
=4||
*M2/4
4B-\
8G\
8r
=5
4c\
8.c\L
16B-\Jk
=6
8.G\L
16F\Jk
4E-\
=7
8.F\L
16E-\Jk
[4F\
=8
4F\]
8E-/L
8C/J
=9
4.E-\
8C/
=10||
*M3/4
8E-\L
8E-\J
4r
8.c\L
16B-\Jk
=11||
*M2/4
4c\
8c\L
16B-\L
16B-\JJ
=12||
*M3/4
8G\L
16G\L
16F\JJ
4G\
4F\
=13||
*M2/4
4E-\
8.G\L
16F\Jk
=14||
*M3/4
4E-\
8G^\L
8F^\J
8E-^/L
16C^/Jk
16r
=15
8E-\L
16F\L
16F\JJ
8E-\L
8E-\J
8E-\L
16E-\L
16E-\JJ
=16
2E-\
4r
==
*-
